X:1
T:The Marriage Supper
T:The Marriage Supper
T:Henry Lake Gilmour
T:Carrie Elizabeth Ellis Breck, 1896
T:Public Domain Courtesy of the Cyber Hymnal™
T:Public Domain Courtesy of the Cyber Hymnal™
C:Henry Lake Gilmour
Z:Public Domain
Z:Courtesy of the Cyber Hymnal™
%%score ( 1 2 ) 3
L:1/8
Q:1/4=98
M:4/4
K:G
V:1 treble 
V:2 treble 
V:3 bass 
V:1
 D>D | [GB]2 [GB]2 [Gc]3 [GB] | [GB]2 [DA]2 [DG]2 [DF]>[DG] | [DA]2 D>D [A,^C]>[A,D] [CE]>[CG] | %4
w: 1.~In the|soul’s bright home be-|yond the sky, In a|land where the ran- somed ne- ver|
w: 2.~O the|bride shall shine in|bright ar- ray, With her|tears all for- ev- er wiped a-|
w: 3.~From all|sin for- ev- er-|more re- leased, They will|come from the west and from the|
w: 4.~We shall|praise Him by the|crys- tal tide, When the|Lamb that was slain is glo- ri-|
 [DA]6 D>D | [GB]2 [GB]2 [Gc]>[GB] [DA]>[DG] | [DA]2 [DG]2 [CE]2 [CF]>[CE] | %7
w: die, There will|be a roy- al ban- quet|by and by, ’Tis the|
w: way; There will|be a great re- joic- ing|on that day, At the|
w: east, For all|na- tions will be ga- thered|at the feast Of the|
w: fied; And the|ran- somed Church of God shall|be the bride At the|
 [B,D]2 [Dc]<[Dc] [GB]<[GB] [FA]>[FA] | [DG]6 ||"^Refrain" [DG]>[DG] | %10
w: great mar- riage sup- per of the|Lamb.||
w: great mar- riage sup- per of the|Lamb.||
w: great mar- riage sup- per of the|Lamb.||
w: great mar- riage sup- per of the|Lamb.||
 [Ec]<[Ec] [Ec]>[Ec] [Ec]2 [Gc]>[Gc] | [GB]<[GB] [GB]>[GB] [GB]2 [GB]>[GB] | %12
w: ||
w: ||
w: ||
w: ||
 [DA]2 [DA]<[DA] [GB]<[GB] [G^c]>[Gc] | [Fd]6 [DG]>[DA] | [DB][DG] [EG]>[CE] D2 [DG]>[DA] | %15
w: |||
w: |||
w: |||
w: |||
 [DB][DG] [EG]>[CE] D2 D>D |"^rit." [CE]2 [Ed][Gc] [GB]<[GB] [FB]>[FA] | [DG]6 |] %18
w: |||
w: |||
w: |||
w: |||
V:2
 D>D | x8 | x8 | x2 D>D x4 | x6 D>D | x8 | x8 | x8 | x6 || x2 | x8 | x8 | x8 | x8 | x4 D2 x2 | %15
 x4 D2 D>D | x8 | x6 |] %18
V:3
 [G,B,]>[G,B,] | [G,D]2 [G,D]2 [G,E]3 [G,D] | [G,D]2 [F,C]2 [G,B,]2 [D,A,]>[D,B,] | %3
w: ~ ~|~ ~ ~ ~|~ ~ ~ ~ ~|
 [D,F,]2 [F,A,]>[F,A,] [G,A,]>[F,A,] [E,A,]>[E,A,] | [D,F,]6 [G,B,]>[G,B,] | %5
w: ~ ~ ~ ~ ~ ~ ~|~ ~ ~|
 [G,D]2 [G,D]2 [G,E]>[G,D] [G,C]>[G,B,] | [F,C]2 [G,B,]2 [C,G,]2 [C,G,]>[C,G,] | %7
w: ~ ~ ~ ~ ~ ~|~ ~ ~ ~ ~|
 [D,G,]2 [F,A,]<[F,A,] [G,D]<[G,D] [D,C]>[D,C] | [G,,B,]6 || [G,B,]>[G,B,] | %10
w: ~ ~ ~ ~ ~ ~ ~|~|Are you|
 [C,G,]<[C,G,] [C,G,]>[C,G,] [C,G,]2 [E,G,]>[E,C] | [G,D]<[G,D] [G,D]>[G,D] [G,D]2 [G,D]>[G,D] | %12
w: go- ing to be there? Are you|go- ing to be there? At the|
 [F,D]2 [F,D]<[F,D] [G,D]<[G,D] [E,A,]>[E,A,] | [D,A,]6 [G,B,]>[G,C] | %14
w: great mar- riage sup- per of the|Lamb; With your|
 [G,D][G,B,] [C,C]>[C,G,] [G,B,]2 [G,B,]>[G,C] | [G,D][G,B,] [C,C]>[C,G,] [G,B,]2 [B,,G,]>[B,,G,] | %16
w: wed- ding gar- ments on, Will you|meet the loved ones gone? At the|
 [C,G,]2 [C,G,][C,E] [D,D]<[D,D] [D,D]>[D,C] | [G,,G,B,]6 |] %18
w: great mar- riage sup- per of the|Lamb.|

